src/assets/selectIconsSpells/acqua_2.svg

<svg xmlns="http://www.w3.org/2000/svg" viewBox="0 0 512 512"><path d="M0 0h512v512H0z"/><path fill="#fff" d="M256.438 14.188c-132.32 0-239.782 107.46-239.782 239.78S124.118 493.75 256.436 493.75c132.32 0 239.783-107.46 239.783-239.78S388.756 14.187 256.436 14.187zm0 17.906c122.653 0 221.875 99.222 221.875 221.875 0 4.52-.14 9.014-.407 13.468-30.945 8.15-68.07-14.224-85.406-43.844-47.56 66.05-89.736 73.192-129.156-1.563-36.942 67.55-104.172 73.156-137.125 20.064-33.724 45.983-56.65 52.056-91.064 28.562-.408-5.506-.625-11.076-.625-16.687 0-122.654 99.254-221.876 221.907-221.876zm138.5 245.22c20.212 40.226 58.603 27.536 81.968 1.56-4.73 42.46-21.395 81.254-46.594 113-33.743 18.582-58.868 7.2-89.562-45.624-41.883 74.754-109.812 67.614-160.344 1.563-17.546 28.218-62.92 49.844-97.28 44.78-21.883-27.33-37.445-59.944-44.44-95.656 23.49 22.105 63.89 29.177 84.408-3.625 32.368 48.656 100.402 51.536 140.25-5.062 23.826 34.047 85.965 64.59 131.594-10.938zM177.813 401.5c48.48 75.528 137.623 45.016 162.937 10.97 17.197 19.63 37.55 20.796 57.688 12.06-38.462 32.052-87.956 51.345-142 51.345-54.692 0-104.714-19.757-143.375-52.5 24.17 8.208 50.552 4.72 64.75-21.875z"/></svg>

<?xml version="1.0" encoding="UTF-8" standalone="no"?>
<!DOCTYPE svg PUBLIC "-//W3C//DTD SVG 1.1//EN" "http://www.w3.org/Graphics/SVG/1.1/DTD/svg11.dtd">
<svg width="100%" height="100%" viewBox="0 0 512 512" version="1.1" xmlns="http://www.w3.org/2000/svg" xmlns:xlink="http://www.w3.org/1999/xlink" xml:space="preserve" xmlns:serif="http://www.serif.com/" style="fill-rule:evenodd;clip-rule:evenodd;stroke-linejoin:round;stroke-miterlimit:2;">
    <rect x="0" y="0" width="512" height="512" style="fill-rule:nonzero;"/>
    <path d="M256.438,14.188C124.118,14.188 16.656,121.648 16.656,253.968C16.656,386.288 124.118,493.75 256.436,493.75C388.756,493.75 496.219,386.29 496.219,253.97C496.219,121.65 388.756,14.187 256.436,14.187L256.438,14.188ZM256.438,32.094C379.091,32.094 478.313,131.316 478.313,253.969C478.313,258.489 478.173,262.983 477.906,267.437C446.961,275.587 409.836,253.213 392.5,223.593C344.94,289.643 302.764,296.785 263.344,222.03C226.402,289.58 159.172,295.186 126.219,242.094C92.495,288.077 69.569,294.15 35.155,270.656C34.747,265.15 34.53,259.58 34.53,253.969C34.53,131.315 133.784,32.093 256.437,32.093L256.438,32.094ZM394.938,277.314C415.15,317.54 453.541,304.85 476.906,278.874C472.176,321.334 455.511,360.128 430.312,391.874C396.569,410.456 371.444,399.074 340.75,346.25C298.867,421.004 230.938,413.864 180.406,347.813C162.86,376.031 117.486,397.657 83.126,392.593C61.243,365.263 45.681,332.649 38.686,296.937C62.176,319.042 102.576,326.114 123.094,293.312C155.462,341.968 223.496,344.848 263.344,288.25C287.17,322.297 349.309,352.84 394.938,277.312L394.938,277.314ZM177.813,401.5C226.293,477.028 315.436,446.516 340.75,412.47C357.947,432.1 378.3,433.266 398.438,424.53C359.976,456.582 310.482,475.875 256.438,475.875C201.746,475.875 151.724,456.118 113.063,423.375C137.233,431.583 163.615,428.095 177.813,401.5Z" style="fill:rgb(43,111,159);fill-rule:nonzero;"/>
</svg>
